X: 1
T: Dawn Chorus
M: 4/4
L: 1/8
R: reel
K: Dmin
|&quot;Dm&quot;AD~ED AD~ED|A2cA GAFE|&quot;Am&quot;A,CEA (3efg fe|&quot;Dm/Gm/Bb&quot;dcAG AD~ED|
&quot;Dm&quot;ADED AD~ED|A2cA GAFE|&quot;Am&quot;A,CEA (3efg fe|&quot;(Dm)&quot;dcAG AD~ED:|
|:&quot;Dm&quot;d3e fddg|&quot;Bb&quot;ddad (3def ed| &quot;C&quot;c3e ceBe|&quot;Am&quot;AeGe FeEe|
&quot;Bb&quot;d3e fddg|&quot;Gm&quot;ddad (3def ed|&quot;Am&quot;A,CEA (3efg fe|dcAG A4:|
